images/icons/dig.svg

<?xml version="1.0" encoding="UTF-8" standalone="no"?>
<svg width="200px" height="200px" viewBox="0 0 200 200" version="1.1" xmlns="http://www.w3.org/2000/svg" xmlns:xlink="http://www.w3.org/1999/xlink">
    <g id="Page-1" stroke="none" stroke-width="1" fill="none" fill-rule="evenodd">
        <g id="dig">
            <rect id="Rectangle-path" fill="#041E41" x="0" y="0" width="200" height="200"></rect>
            <path d="M42.2239316,122.176923 L42.2239316,129.103419 C42.0623932,129.152137 41.9008547,129.2 41.7393162,129.247863 C41.3888889,128.016239 41.0384615,126.783761 40.6880342,125.550427 C42.1888889,124.876068 40.9598291,122.958974 42.2239316,122.176923 L42.2239316,122.176923 Z" id="Shape" fill="#F5C400"></path>
            <path d="M19.2307692,57.2649573 C17.7786325,58.9213675 17.982906,60.9589744 17.9752137,62.9247863 C17.9435897,71.5606838 17.8393162,80.2 18.0213675,88.8324786 C18.0974359,92.4358974 16.8948718,94.6931624 13.1991453,95.7692308 C10.3700855,96.5923077 7.69230769,97.8632479 5.98290598,100.854701 L5.98290598,105.128205 C6.83760684,110.238462 7.4017094,115.548718 12.3871795,118.267521 C17.3094017,120.952991 18.5068376,124.81453 17.974359,129.864103 C17.708547,132.381197 17.9547009,134.950427 17.9923077,137.494872 C18.0188034,139.317949 17.8598291,141.210256 19.2299145,142.735043 L182.905128,142.735043 L182.905128,57.2649573 L19.2307692,57.2649573 L19.2307692,57.2649573 Z M177.268376,140.763248 C152.492308,140.745299 127.715385,140.751282 102.938462,140.751282 C77.165812,140.751282 51.391453,140.663248 25.6196581,140.844444 C21.7495726,140.871795 20.6811966,139.730769 20.9709402,136.034188 C21.2923077,131.929915 21.0948718,127.780342 21.0247863,123.652137 C20.9948718,121.863248 21.5213675,121.035897 23.4752137,121.27265 C27.4162393,121.749573 31.4333333,121.005983 36.0811966,122.363248 C33.3153846,114.698291 27.8760684,110.459829 21.8880342,106.706838 C20.665812,106.35641 19.5042735,105.910256 18.6641026,104.578632 C20.3931624,104.130769 21.6119658,104.964103 22.8384615,105.765812 C32.2777778,109.212821 37.9025641,116.100855 40.6871795,125.550427 C41.3188034,126.221368 41.6726496,127.042735 41.8495726,127.952991 C41.4564103,125.963248 41.8128205,124.068376 42.2239316,122.176923 C42.2307692,110.597436 47.2188034,100.933333 53.9059829,91.808547 C46.4897436,95.4982906 42.7615385,102.149573 39.2863248,109.623932 C36.8487179,105.578632 34.3290598,101.98547 30.7111111,99.408547 C29.4452991,98.5068376 28.0675214,97.2948718 26.6487179,97.1555556 C21.0606838,96.6042735 20.7564103,93.1940171 20.9470085,88.6282051 C21.2905983,80.3837607 21.2649573,72.1059829 20.9470085,63.8598291 C20.7982906,59.991453 22.0264957,59.157265 25.7222222,59.1666667 C72.9965812,59.291453 120.27094,59.2487179 167.546154,59.2487179 C171.105128,59.2487179 174.67094,59.3615385 178.223077,59.2111111 C180.686325,59.1068376 181.391453,60.0974359 181.386325,62.4598291 C181.325641,87.5205128 181.299145,112.582051 181.405128,137.64359 C181.420513,141.030769 179.487179,140.764957 177.268376,140.763248 L177.268376,140.763248 Z" id="Shape" fill="#FED502"></path>
            <path d="M173.076923,114.234188 C173.076923,118.935043 172.935897,123.641026 173.133333,128.331624 C173.240171,130.864103 172.677778,131.802564 169.910256,131.715385 C166.535043,131.608547 163.608547,131.088034 162.121368,127.730769 C161.405128,126.116239 160.932479,126.404274 159.722222,127.282051 C141.076068,140.798291 116.58547,129.728205 113.946154,106.746154 C113.119658,99.5504274 113.352991,92.5179487 115.850427,85.725641 C119.865812,74.8068376 127.88547,68.6495726 139.375214,67.4401709 C149.450427,66.3803419 159.047863,67.6709402 166.574359,75.4948718 C169.706838,78.7521368 171.520513,82.6820513 172.515385,87.0965812 C172.977778,89.1452991 172.377778,89.5820513 170.508547,89.5854701 C164.711111,89.5957265 159.458974,90.0376068 155.14188,83.9982906 C149.673504,76.3495726 135.712821,78.542735 131.247009,87.2555556 C126.981197,95.5769231 127.042735,104.337607 131.222222,112.700855 C134.310256,118.879487 140.003419,120.88547 146.635043,120.397436 C152.261538,119.983761 156.163248,117.076923 158.407692,111.894872 C159.268376,109.910256 159.288889,108.676068 156.534188,108.845299 C154.7,108.957265 152.8,108.934188 151.005128,108.583761 C146.580342,107.719658 143.579487,101.538462 145.536752,97.7136752 C146.04359,96.7230769 146.845299,96.774359 147.678632,96.7735043 C155.369231,96.7641026 163.061538,96.8188034 170.750427,96.7299145 C172.719658,96.7076923 173.125641,97.5529915 173.100855,99.2811966 C173.028205,104.264103 173.075214,109.249573 173.076923,114.234188 L173.076923,114.234188 Z" id="Shape" fill="#FEFEFE"></path>
            <path d="M36.5777778,98.6589744 C33.4478632,96.6700855 31.9205128,94.1777778 32.1435897,90.2700855 C32.482906,84.3153846 32.3290598,78.3239316 32.1863248,72.3529915 C32.1282051,69.9017094 32.6358974,68.7846154 35.4213675,68.8384615 C43.9529915,69.0034188 52.4965812,68.6965812 61.0230769,68.9564103 C70.7487179,69.2529915 78.1410256,73.925641 82.8324786,82.3786325 C88.8991453,93.3119658 89.0854701,104.735897 83.8940171,115.964957 C79.4136752,125.655556 71.391453,130.84359 60.7068376,131.536752 C56.3153846,131.822222 51.8888889,131.517094 47.4837607,131.655556 C44.4965812,131.749573 44.7965812,130.394872 45.9606838,128.630769 C47.3239316,126.565812 49.4555556,125.322222 51.4273504,123.94359 C55.6188034,121.012821 59.9555556,118.265812 63.2316239,114.228205 C69.765812,106.174359 69.4504274,90.725641 62.6444444,83.1803419 C61.2384615,81.6222222 59.4495726,82.0333333 57.8623932,82.2735043 C47.8179487,83.791453 40.0111111,88.3367521 36.5777778,98.6589744 L36.5777778,98.6589744 Z" id="Shape" fill="#FEFEFE"></path>
            <path d="M92.6735043,71.8700855 C92.6213675,68.9316239 93.5196581,68.0444444 96.3290598,68.7196581 C98.3837607,69.2128205 100.546154,69.2837607 102.576068,69.8470085 C106.276923,70.874359 108.382051,73.4487179 108.397436,77.3025641 C108.470085,94.642735 108.415385,111.984615 108.486325,129.323932 C108.494872,131.288889 107.686325,131.830769 105.95641,131.625641 C105.817094,131.608547 105.67265,131.625641 105.529915,131.623077 C101.429915,131.546154 96.0880342,133.005983 93.5717949,130.970085 C90.9188034,128.823932 92.8726496,123.261538 92.7760684,119.2 C92.6247863,112.806838 92.7350427,106.408547 92.7350427,100.011966 C92.7350427,90.6316239 92.8401709,81.2478632 92.6735043,71.8700855 Z" id="Shape" fill="#FEFEFE"></path>
        </g>
    </g>
</svg>

<svg width="200" height="200" viewBox="0 0 200 200" xmlns="http://www.w3.org/2000/svg"><g fill="none" fill-rule="evenodd"><path fill="#041E41" d="M0 0h200v200H0z"/><path d="M42.224 122.177v6.926c-.162.05-.323.097-.485.145-.35-1.232-.71-2.464-1.06-3.698 1.5-.674.27-2.59 1.535-3.373z" fill="#F5C400"/><path d="M19.23 57.265c-1.45 1.656-1.247 3.694-1.255 5.66-.03 8.636-.136 17.275.046 25.907.08 3.604-1.12 5.86-4.82 6.937-2.83.82-5.5 2.09-7.21 5.08v4.27c.857 5.11 1.42 10.42 6.406 13.14 4.92 2.684 6.12 6.546 5.587 11.595-.265 2.517-.02 5.086.018 7.63.028 1.824-.13 3.716 1.24 5.24h163.67V57.26H19.23zm158.038 83.498c-24.776-.018-49.553-.012-74.33-.012-25.772 0-51.547-.08-77.318.1-3.87.03-4.94-1.11-4.65-4.81.322-4.1.125-8.25.055-12.38-.03-1.79.496-2.615 2.45-2.38 3.94.48 7.958-.265 12.606 1.09-2.76-7.663-8.2-11.9-14.19-15.654-1.22-.35-2.38-.797-3.22-2.13 1.73-.45 2.95.386 4.177 1.188 9.44 3.448 15.065 10.336 17.85 19.785.63.67.985 1.494 1.16 2.404-.392-1.99-.035-3.886.376-5.777.007-11.58 4.995-21.244 11.68-30.37-7.414 3.69-11.142 10.34-14.62 17.815-2.435-4.044-4.955-7.64-8.573-10.214-1.266-.904-2.643-2.116-4.06-2.255-5.59-.55-5.895-3.96-5.704-8.527.342-8.244.316-16.522 0-24.768-.15-3.87 1.08-4.705 4.773-4.695 47.273.123 94.55.08 141.822.08 3.56 0 7.125.11 10.677-.04 2.462-.104 3.167.886 3.162 3.25-.06 25.06-.09 50.12.02 75.183.012 3.39-1.92 3.12-4.14 3.12z" fill="#FED502"/><path d="M173.077 114.234c0 4.7-.14 9.407.056 14.098.107 2.532-.455 3.47-3.223 3.383-3.375-.106-6.3-.627-7.79-3.984-.715-1.61-1.188-1.32-2.398-.44-18.646 13.517-43.137 2.447-45.776-20.535-.826-7.196-.593-14.23 1.904-21.02 4.016-10.92 12.035-17.076 23.525-18.286 10.075-1.06 19.673.23 27.2 8.055 3.132 3.255 4.946 7.185 5.94 11.6.463 2.05-.137 2.485-2.006 2.49-5.8.01-11.05.45-15.37-5.59-5.47-7.65-19.43-5.454-23.9 3.26-4.268 8.32-4.206 17.08-.027 25.444 3.09 6.18 8.78 8.184 15.413 7.696 5.627-.412 9.53-3.32 11.773-8.5.86-1.987.88-3.22-1.874-3.05-1.835.11-3.735.09-5.53-.26-4.425-.867-7.426-7.05-5.468-10.87.505-.994 1.306-.94 2.14-.94 7.69-.01 15.382.042 23.07-.047 1.97-.023 2.376.822 2.35 2.55-.07 4.983-.025 9.97-.023 14.953zM36.577 98.66c-3.13-1.99-4.656-4.482-4.433-8.39.34-5.955.185-11.946.042-17.917-.058-2.45.45-3.568 3.235-3.515 8.54.165 17.08-.14 25.61.118 9.728.297 17.12 4.97 21.81 13.423 6.068 10.93 6.25 22.35 1.06 33.58-4.48 9.69-12.5 14.88-23.184 15.57-4.392.283-8.82-.02-13.223.12-2.987.09-2.687-1.26-1.523-3.028 1.363-2.065 3.495-3.31 5.466-4.687 4.19-2.93 8.53-5.678 11.805-9.716 6.535-8.054 6.22-23.5-.59-31.048-1.403-1.56-3.19-1.148-4.78-.907-10.043 1.52-17.85 6.066-21.283 16.39zm56.097-26.79c-.053-2.938.846-3.826 3.655-3.15 2.05.493 4.21.564 6.24 1.127 3.7 1.027 5.803 3.602 5.82 7.456.07 17.34.02 34.682.09 52.02.01 1.966-.8 2.508-2.53 2.303-.14-.017-.286 0-.43-.003-4.1-.077-9.442 1.383-11.96-.653-2.65-2.146-.7-7.708-.794-11.77-.15-6.393-.04-12.79-.04-19.188 0-9.38.104-18.764-.06-28.142z" fill="#FEFEFE"/></g></svg>
